X: 14186
T: Frost Is All Over, The
R: jig
M: 6/8
K: Dmajor
def edB|AFD EFE|DFA AFA|Bcd ecA|
def edB|AFD EFE|DFA AFA|Bdc D3:|
f3 afd|g3 bag|f3 afd|gfg e2g|
f3 afd|g3 bag|fga efg|fdc d3:|

